Newaita-dark/apps/32/mintreport.svg

<svg height="32pt" viewBox="0 0 32 32" width="32pt" xmlns="http://www.w3.org/2000/svg" xmlns:xlink="http://www.w3.org/1999/xlink"><linearGradient id="a" gradientUnits="userSpaceOnUse" x1="15.876521" x2="15.876521" y1="28.033935" y2="29.35697887502"><stop offset="0" stop-opacity=".27451"/><stop offset="1" stop-opacity="0"/></linearGradient><linearGradient id="b"><stop offset="0" stop-opacity=".313725"/><stop offset=".222222" stop-opacity=".27451"/><stop offset="1" stop-opacity="0"/></linearGradient><radialGradient id="c" cx="450.90894" cy="189.57936" gradientTransform="matrix(.00000017 -.0781325 -.140638 -.0000001 50.146085 63.595334)" gradientUnits="userSpaceOnUse" r="21.166656" xlink:href="#b"/><radialGradient id="d" cx="450.90894" cy="189.57936" gradientTransform="matrix(-.00000017 .0781325 .140638 .0000001 -18.393049 -7.52748)" gradientUnits="userSpaceOnUse" r="21.166656" xlink:href="#b"/><radialGradient id="e" cx="450.90894" cy="189.57936" gradientTransform="matrix(-.00000017 -.0781325 .140638 -.0000001 -18.393049 63.595334)" gradientUnits="userSpaceOnUse" r="21.166656" xlink:href="#b"/><radialGradient id="f" cx="450.90894" cy="189.57936" gradientTransform="matrix(.00000017 .0781325 -.140638 .0000001 50.146083 -7.527479)" gradientUnits="userSpaceOnUse" r="21.166656" xlink:href="#b"/><linearGradient id="g" gradientTransform="matrix(.0753497 0 0 .217412 -5.854013 33.641349)" gradientUnits="userSpaceOnUse" x1="323.51324" x2="323.51324" y1="-141.41458" y2="-25.791676"><stop offset="0" stop-color="#8d6e63"/><stop offset="1" stop-color="#795548"/></linearGradient><linearGradient id="h" gradientUnits="userSpaceOnUse" x1="254" x2="254" y1="212.33333" y2="-115.75"><stop offset="0" stop-color="#e0e0e0"/><stop offset="1" stop-color="#eee"/></linearGradient><linearGradient id="i" gradientUnits="userSpaceOnUse" x1="15.87648" x2="15.87648" y1="28.0338647916" y2="2.89610363394"><stop offset="0" stop-color="#424242"/><stop offset="1" stop-color="#616161"/></linearGradient><path d="m7.9375 28.035156h15.878906v1.320313h-15.878906zm0 0" fill="url(#a)"/><path d="m23.816406 28.035156h2.644532v-1.324218h-2.644532zm0 0" fill="url(#c)"/><path d="m7.9375 28.035156h-2.644531v1.320313h2.644531zm0 0" fill="url(#d)"/><path d="m7.9375 28.035156h-2.644531v-1.324218h2.644531zm0 0" fill="url(#e)"/><path d="m23.816406 28.035156h2.644532v1.320313h-2.644532zm0 0" fill="url(#f)"/><path d="m6.613281 6.203125h18.523438c.730469 0 1.324219.59375 1.324219 1.324219v19.183594c0 .730468-.59375 1.324218-1.324219 1.324218h-18.523438c-.730469 0-1.320312-.59375-1.320312-1.324218v-19.183594c0-.730469.589843-1.324219 1.320312-1.324219zm0 0" fill="url(#g)"/><path d="m6.613281 6.296875c-.730469 0-1.320312.589844-1.320312 1.324219v.164062c0-.734375.589843-1.324218 1.320312-1.324218h18.523438c.734375 0 1.324219.589843 1.324219 1.324218v-.164062c0-.734375-.589844-1.324219-1.324219-1.324219zm0 0" fill="#fff" fill-opacity=".392157"/><path d="m6.613281 27.960938c-.730469 0-1.320312-.59375-1.320312-1.324219v-.164063c0 .730469.589843 1.320313 1.320312 1.320313h18.523438c.734375 0 1.324219-.589844 1.324219-1.320313v.164063c0 .730469-.589844 1.324219-1.324219 1.324219zm0 0" fill-opacity=".196078"/><path d="m105.802396-115.759477h296.346701c11.686384 0 21.185477 9.499093 21.185477 21.185477v306.908192c0 11.686384-9.499093 21.185477-21.185477 21.185477h-296.346701c-11.686384 0-21.122982-9.499093-21.122982-21.185477v-306.908192c0-11.686384 9.436598-21.185477 21.122982-21.185477zm0 0" fill="none" stroke="#212121" stroke-linecap="round" stroke-width="3" transform="matrix(.062506 0 0 .062506 0 13.438783)"/><path d="m126.987873-105.135492h254.038241c5.811945 0 10.561491 4.687053 10.561491 10.561492v296.3467c0 5.811945-4.749546 10.561492-10.561491 10.561492h-254.038241c-5.811945 0-10.561491-4.749547-10.561491-10.561492v-296.3467c0-5.874439 4.749546-10.561492 10.561491-10.561492zm0 0" fill="url(#h)" stroke="#212121" stroke-linecap="round" stroke-linejoin="round" stroke-width="3" transform="matrix(.062506 0 0 .062506 0 13.438783)"/><path d="m11.90625 2.894531c-.367188 0-.660156.296875-.660156.664063v.660156h-1.984375c-.367188 0-.660157.296875-.660157.660156v2.648438c0 .367187.292969.660156.660157.660156h13.230469c.367187 0 .660156-.292969.660156-.660156v-2.648438c0-.363281-.292969-.660156-.660156-.660156h-1.984376v-.660156c0-.367188-.296874-.664063-.664062-.664063zm0 0" fill="url(#i)"/><path d="m8.601562 7.527344v.660156c0 .367188.292969.664062.660157.664062h13.230469c.367187 0 .660156-.296874.660156-.664062v-.660156c0 .367187-.292969.660156-.660156.660156h-13.230469c-.367188 0-.660157-.292969-.660157-.660156zm0 0" fill-opacity=".235294"/><path d="m11.90625 2.894531c-.367188 0-.660156.296875-.660156.664063v.246094c0-.367188.292968-.660157.660156-.660157h7.9375c.367188 0 .664062.292969.664062.660157v-.246094c0-.367188-.296874-.664063-.664062-.664063zm-2.644531 1.324219c-.367188 0-.660157.296875-.660157.660156v.25c0-.367187.292969-.660156.660157-.660156h1.984375v-.25zm11.246093 0v.25h1.984376c.367187 0 .660156.292969.660156.660156v-.25c0-.363281-.292969-.660156-.660156-.660156zm0 0" fill="#fff" fill-opacity=".313725"/><path d="m719.931259 175.022658c-22.202604 0-39.917448 17.951042-39.917448 40.153647v39.917448h-119.988544c-22.202604 0-39.917448 17.951042-39.917448 39.917449v160.142189c0 22.202605 17.714844 39.917449 39.917448 39.917449h800.002354c22.202605 0 39.917449-17.714844 39.917449-39.917449v-160.142189c0-21.966407-17.714844-39.917449-39.917449-39.917449h-119.988543v-39.917448c0-22.202605-17.951042-40.153647-40.153646-40.153647zm0 0" fill="none" stroke="#212121" stroke-linecap="round" stroke-linejoin="round" stroke-width="11.338583" transform="scale(.016538)"/><path d="m7.277344 26.050781v.328125c0 .367188.292968.664063.660156.664063h15.878906c.363282 0 .660156-.296875.660156-.664063v-.328125c0 .363281-.296874.660157-.660156.660157h-15.878906c-.367188 0-.660156-.296876-.660156-.660157zm0 0" fill-opacity=".235294"/><g fill="#f44336"><path d="m15.214844 10.171875h1.324218c.363282 0 .660157.296875.660157.664063v7.9375c0 .363281-.296875.660156-.660157.660156h-1.324218c-.363282 0-.660156-.296875-.660156-.660156v-7.9375c0-.367188.296874-.664063.660156-.664063zm0 0"/><path d="m15.214844 21.417969h1.324218c.363282 0 .660157.273437.660157.613281v1.421875c0 .335937-.296875.613281-.660157.613281h-1.324218c-.363282 0-.660156-.277344-.660156-.613281v-1.421875c0-.339844.296874-.613281.660156-.613281zm0 0"/></g></svg>

<?xml version="1.0" encoding="UTF-8"?>
<svg xmlns="http://www.w3.org/2000/svg" xmlns:xlink="http://www.w3.org/1999/xlink" width="32pt" height="32pt" viewBox="0 0 32 32" version="1.1">
<defs>
<linearGradient id="linear0" gradientUnits="userSpaceOnUse" x1="254" y1="233.5" x2="254" y2="254.66667" gradientTransform="matrix(0.062506,0,0,0.062506,-0.00000250024,13.438784)">
<stop offset="0" style="stop-color:rgb(0%,0%,0%);stop-opacity:0.27451;"/>
<stop offset="1" style="stop-color:rgb(0%,0%,0%);stop-opacity:0;"/>
</linearGradient>
<radialGradient id="radial0" gradientUnits="userSpaceOnUse" cx="450.90894" cy="189.57936" fx="450.90894" fy="189.57936" r="21.166656" gradientTransform="matrix(0.00000017417,-0.0781325,-0.140638,-0.000000101539,50.146085,63.595334)">
<stop offset="0" style="stop-color:rgb(0%,0%,0%);stop-opacity:0.313725;"/>
<stop offset="0.222222" style="stop-color:rgb(0%,0%,0%);stop-opacity:0.27451;"/>
<stop offset="1" style="stop-color:rgb(0%,0%,0%);stop-opacity:0;"/>
</radialGradient>
<radialGradient id="radial1" gradientUnits="userSpaceOnUse" cx="450.90894" cy="189.57936" fx="450.90894" fy="189.57936" r="21.166656" gradientTransform="matrix(-0.00000017417,0.0781325,0.140638,0.000000101539,-18.393049,-7.52748)">
<stop offset="0" style="stop-color:rgb(0%,0%,0%);stop-opacity:0.313725;"/>
<stop offset="0.222222" style="stop-color:rgb(0%,0%,0%);stop-opacity:0.27451;"/>
<stop offset="1" style="stop-color:rgb(0%,0%,0%);stop-opacity:0;"/>
</radialGradient>
<radialGradient id="radial2" gradientUnits="userSpaceOnUse" cx="450.90894" cy="189.57936" fx="450.90894" fy="189.57936" r="21.166656" gradientTransform="matrix(-0.00000017417,-0.0781325,0.140638,-0.000000101539,-18.393049,63.595334)">
<stop offset="0" style="stop-color:rgb(0%,0%,0%);stop-opacity:0.313725;"/>
<stop offset="0.222222" style="stop-color:rgb(0%,0%,0%);stop-opacity:0.27451;"/>
<stop offset="1" style="stop-color:rgb(0%,0%,0%);stop-opacity:0;"/>
</radialGradient>
<radialGradient id="radial3" gradientUnits="userSpaceOnUse" cx="450.90894" cy="189.57936" fx="450.90894" fy="189.57936" r="21.166656" gradientTransform="matrix(0.00000017417,0.0781325,-0.140638,0.000000101539,50.146083,-7.527479)">
<stop offset="0" style="stop-color:rgb(0%,0%,0%);stop-opacity:0.313725;"/>
<stop offset="0.222222" style="stop-color:rgb(0%,0%,0%);stop-opacity:0.27451;"/>
<stop offset="1" style="stop-color:rgb(0%,0%,0%);stop-opacity:0;"/>
</radialGradient>
<linearGradient id="linear1" gradientUnits="userSpaceOnUse" x1="323.51324" y1="-141.41458" x2="323.51324" y2="-25.791676" gradientTransform="matrix(0.0753497,0,0,0.217412,-5.854013,33.641349)">
<stop offset="0" style="stop-color:rgb(55.294118%,43.137255%,38.823529%);stop-opacity:1;"/>
<stop offset="1" style="stop-color:rgb(47.45098%,33.333333%,28.235294%);stop-opacity:1;"/>
</linearGradient>
<linearGradient id="linear2" gradientUnits="userSpaceOnUse" x1="254" y1="212.33333" x2="254" y2="-115.75" >
<stop offset="0" style="stop-color:rgb(87.843137%,87.843137%,87.843137%);stop-opacity:1;"/>
<stop offset="1" style="stop-color:rgb(93.333333%,93.333333%,93.333333%);stop-opacity:1;"/>
</linearGradient>
<linearGradient id="linear3" gradientUnits="userSpaceOnUse" x1="960" y1="1695.1182" x2="960" y2="175.11813" gradientTransform="matrix(0.016538,0,0,0.016538,0,0)">
<stop offset="0" style="stop-color:rgb(25.882353%,25.882353%,25.882353%);stop-opacity:1;"/>
<stop offset="1" style="stop-color:rgb(38.039216%,38.039216%,38.039216%);stop-opacity:1;"/>
</linearGradient>
</defs>
<g id="surface1">
<path style=" stroke:none;fill-rule:nonzero;fill:url(#linear0);" d="M 7.9375 28.035156 L 23.816406 28.035156 L 23.816406 29.355469 L 7.9375 29.355469 Z M 7.9375 28.035156 "/>
<path style=" stroke:none;fill-rule:nonzero;fill:url(#radial0);" d="M 23.816406 28.035156 L 26.460938 28.035156 L 26.460938 26.710938 L 23.816406 26.710938 Z M 23.816406 28.035156 "/>
<path style=" stroke:none;fill-rule:nonzero;fill:url(#radial1);" d="M 7.9375 28.035156 L 5.292969 28.035156 L 5.292969 29.355469 L 7.9375 29.355469 Z M 7.9375 28.035156 "/>
<path style=" stroke:none;fill-rule:nonzero;fill:url(#radial2);" d="M 7.9375 28.035156 L 5.292969 28.035156 L 5.292969 26.710938 L 7.9375 26.710938 Z M 7.9375 28.035156 "/>
<path style=" stroke:none;fill-rule:nonzero;fill:url(#radial3);" d="M 23.816406 28.035156 L 26.460938 28.035156 L 26.460938 29.355469 L 23.816406 29.355469 Z M 23.816406 28.035156 "/>
<path style=" stroke:none;fill-rule:nonzero;fill:url(#linear1);" d="M 6.613281 6.203125 L 25.136719 6.203125 C 25.867188 6.203125 26.460938 6.796875 26.460938 7.527344 L 26.460938 26.710938 C 26.460938 27.441406 25.867188 28.035156 25.136719 28.035156 L 6.613281 28.035156 C 5.882812 28.035156 5.292969 27.441406 5.292969 26.710938 L 5.292969 7.527344 C 5.292969 6.796875 5.882812 6.203125 6.613281 6.203125 Z M 6.613281 6.203125 "/>
<path style=" stroke:none;fill-rule:nonzero;fill:rgb(100%,100%,100%);fill-opacity:0.392157;" d="M 6.613281 6.296875 C 5.882812 6.296875 5.292969 6.886719 5.292969 7.621094 L 5.292969 7.785156 C 5.292969 7.050781 5.882812 6.460938 6.613281 6.460938 L 25.136719 6.460938 C 25.871094 6.460938 26.460938 7.050781 26.460938 7.785156 L 26.460938 7.621094 C 26.460938 6.886719 25.871094 6.296875 25.136719 6.296875 Z M 6.613281 6.296875 "/>
<path style=" stroke:none;fill-rule:nonzero;fill:rgb(0%,0%,0%);fill-opacity:0.196078;" d="M 6.613281 27.960938 C 5.882812 27.960938 5.292969 27.367188 5.292969 26.636719 L 5.292969 26.472656 C 5.292969 27.203125 5.882812 27.792969 6.613281 27.792969 L 25.136719 27.792969 C 25.871094 27.792969 26.460938 27.203125 26.460938 26.472656 L 26.460938 26.636719 C 26.460938 27.367188 25.871094 27.960938 25.136719 27.960938 Z M 6.613281 27.960938 "/>
<path style="fill:none;stroke-width:3;stroke-linecap:round;stroke-linejoin:miter;stroke:rgb(12.941176%,12.941176%,12.941176%);stroke-opacity:1;stroke-miterlimit:4;" d="M 105.802396 -115.759477 L 402.149097 -115.759477 C 413.835481 -115.759477 423.334574 -106.260384 423.334574 -94.574 L 423.334574 212.334192 C 423.334574 224.020576 413.835481 233.519669 402.149097 233.519669 L 105.802396 233.519669 C 94.116012 233.519669 84.679414 224.020576 84.679414 212.334192 L 84.679414 -94.574 C 84.679414 -106.260384 94.116012 -115.759477 105.802396 -115.759477 Z M 105.802396 -115.759477 " transform="matrix(0.062506,0,0,0.062506,0,13.438783)"/>
<path style="fill-rule:nonzero;fill:url(#linear2);stroke-width:3;stroke-linecap:round;stroke-linejoin:round;stroke:rgb(12.941176%,12.941176%,12.941176%);stroke-opacity:1;stroke-miterlimit:4;" d="M 126.987873 -105.135492 L 381.026114 -105.135492 C 386.838059 -105.135492 391.587605 -100.448439 391.587605 -94.574 L 391.587605 201.7727 C 391.587605 207.584645 386.838059 212.334192 381.026114 212.334192 L 126.987873 212.334192 C 121.175928 212.334192 116.426382 207.584645 116.426382 201.7727 L 116.426382 -94.574 C 116.426382 -100.448439 121.175928 -105.135492 126.987873 -105.135492 Z M 126.987873 -105.135492 " transform="matrix(0.062506,0,0,0.062506,0,13.438783)"/>
<path style=" stroke:none;fill-rule:nonzero;fill:url(#linear3);" d="M 11.90625 2.894531 C 11.539062 2.894531 11.246094 3.191406 11.246094 3.558594 L 11.246094 4.21875 L 9.261719 4.21875 C 8.894531 4.21875 8.601562 4.515625 8.601562 4.878906 L 8.601562 7.527344 C 8.601562 7.894531 8.894531 8.1875 9.261719 8.1875 L 22.492188 8.1875 C 22.859375 8.1875 23.152344 7.894531 23.152344 7.527344 L 23.152344 4.878906 C 23.152344 4.515625 22.859375 4.21875 22.492188 4.21875 L 20.507812 4.21875 L 20.507812 3.558594 C 20.507812 3.191406 20.210938 2.894531 19.84375 2.894531 Z M 11.90625 2.894531 "/>
<path style=" stroke:none;fill-rule:nonzero;fill:rgb(0%,0%,0%);fill-opacity:0.235294;" d="M 8.601562 7.527344 L 8.601562 8.1875 C 8.601562 8.554688 8.894531 8.851562 9.261719 8.851562 L 22.492188 8.851562 C 22.859375 8.851562 23.152344 8.554688 23.152344 8.1875 L 23.152344 7.527344 C 23.152344 7.894531 22.859375 8.1875 22.492188 8.1875 L 9.261719 8.1875 C 8.894531 8.1875 8.601562 7.894531 8.601562 7.527344 Z M 8.601562 7.527344 "/>
<path style=" stroke:none;fill-rule:nonzero;fill:rgb(100%,100%,100%);fill-opacity:0.313725;" d="M 11.90625 2.894531 C 11.539062 2.894531 11.246094 3.191406 11.246094 3.558594 L 11.246094 3.804688 C 11.246094 3.4375 11.539062 3.144531 11.90625 3.144531 L 19.84375 3.144531 C 20.210938 3.144531 20.507812 3.4375 20.507812 3.804688 L 20.507812 3.558594 C 20.507812 3.191406 20.210938 2.894531 19.84375 2.894531 Z M 9.261719 4.21875 C 8.894531 4.21875 8.601562 4.515625 8.601562 4.878906 L 8.601562 5.128906 C 8.601562 4.761719 8.894531 4.46875 9.261719 4.46875 L 11.246094 4.46875 L 11.246094 4.21875 Z M 20.507812 4.21875 L 20.507812 4.46875 L 22.492188 4.46875 C 22.859375 4.46875 23.152344 4.761719 23.152344 5.128906 L 23.152344 4.878906 C 23.152344 4.515625 22.859375 4.21875 22.492188 4.21875 Z M 20.507812 4.21875 "/>
<path style="fill:none;stroke-width:11.338583;stroke-linecap:round;stroke-linejoin:round;stroke:rgb(12.941176%,12.941176%,12.941176%);stroke-opacity:1;stroke-miterlimit:4;" d="M 719.931259 175.022658 C 697.728655 175.022658 680.013811 192.9737 680.013811 215.176305 L 680.013811 255.093753 L 560.025267 255.093753 C 537.822663 255.093753 520.107819 273.044795 520.107819 295.011202 L 520.107819 455.153391 C 520.107819 477.355996 537.822663 495.07084 560.025267 495.07084 L 1360.027621 495.07084 C 1382.230226 495.07084 1399.94507 477.355996 1399.94507 455.153391 L 1399.94507 295.011202 C 1399.94507 273.044795 1382.230226 255.093753 1360.027621 255.093753 L 1240.039078 255.093753 L 1240.039078 215.176305 C 1240.039078 192.9737 1222.088036 175.022658 1199.885432 175.022658 Z M 719.931259 175.022658 " transform="matrix(0.016538,0,0,0.016538,0,0)"/>
<path style=" stroke:none;fill-rule:nonzero;fill:rgb(0%,0%,0%);fill-opacity:0.235294;" d="M 7.277344 26.050781 L 7.277344 26.378906 C 7.277344 26.746094 7.570312 27.042969 7.9375 27.042969 L 23.816406 27.042969 C 24.179688 27.042969 24.476562 26.746094 24.476562 26.378906 L 24.476562 26.050781 C 24.476562 26.414062 24.179688 26.710938 23.816406 26.710938 L 7.9375 26.710938 C 7.570312 26.710938 7.277344 26.414062 7.277344 26.050781 Z M 7.277344 26.050781 "/>
<path style=" stroke:none;fill-rule:nonzero;fill:rgb(95.686275%,26.27451%,21.176471%);fill-opacity:1;" d="M 15.214844 10.171875 L 16.539062 10.171875 C 16.902344 10.171875 17.199219 10.46875 17.199219 10.835938 L 17.199219 18.773438 C 17.199219 19.136719 16.902344 19.433594 16.539062 19.433594 L 15.214844 19.433594 C 14.851562 19.433594 14.554688 19.136719 14.554688 18.773438 L 14.554688 10.835938 C 14.554688 10.46875 14.851562 10.171875 15.214844 10.171875 Z M 15.214844 10.171875 "/>
<path style=" stroke:none;fill-rule:nonzero;fill:rgb(95.686275%,26.27451%,21.176471%);fill-opacity:1;" d="M 15.214844 21.417969 L 16.539062 21.417969 C 16.902344 21.417969 17.199219 21.691406 17.199219 22.03125 L 17.199219 23.453125 C 17.199219 23.789062 16.902344 24.066406 16.539062 24.066406 L 15.214844 24.066406 C 14.851562 24.066406 14.554688 23.789062 14.554688 23.453125 L 14.554688 22.03125 C 14.554688 21.691406 14.851562 21.417969 15.214844 21.417969 Z M 15.214844 21.417969 "/>
</g>
</svg>
